/* XPM */
static char *east_xpm[] = {
"64 64 2 1",
"  c #1a8c1a",
". c #2bcc2b",
"................................................................",
"................................................................",
".. .. .. .. .. .. .. .. .. .. .. .. .. .. .. .. .. .. .. .. .. ..",
".. .. .. .. .. .. .. .. .. .. .. .. .. .. .. .. .. .. .. .. .. ..",
"................................................................",
"................................................................",
".. .. .. .. .. .. .. .. .. .. .. .. .. .. .. .. .. .. .. .. .. ..",
".. .. .. .. .. .. .. .. .. .. .. .. .. .. .. .. .. .. .. .. .. ..",
"................................................................",
"................................................................",
".. .. .. .. .. .. .. .. .. .. .. .. .. .. .. .. .. .. .. .. .. ..",
".. .. .. .. .. .. .. .. .. .. .. .. .. .. .. .. .. .. .. .. .. ..",
"................................................................",
"................................................................",
".. .. .. .. .. .. .. .. .. .. .. .. .. .. .. .. .. .. .. .. .. ..",
".. .. .. .. .. .. .. .. .. .. .. .. .. .. .. .. .. .. .. .. .. ..",
"................................................................",
"................................................................",
".. .. .. .. .. .. .. .. .. .. .. .. .. .. .. .. .. .. .. .. .. ..",
".. .. .. .. .. .. .. .. .. .. .. .. .. .. .. .. .. .. .. .. .. ..",
"................................................................",
"................................................................",
".. .. .. .. .. .. .. .. .. .. .. .. .. .. .. .. .. .. .. .. .. ..",
".. .. .. .. .. .. .. .. .. .. .. .. .. .. .. .. .. .. .. .. .. ..",
"................................................................",
"................................................................",
".. .. .. .. .. .. .. .. .. .. .. .. .. .. .. .. .. .. .. .. .. ..",
".. .. .. .. .. .. .. .. .. .. .. .. .. .. .. .. .. .. .. .. .. ..",
"................................................................",
"................................................................",
".. .. .. .. .. .. .. .. .. .. .. .. .. .. .. .. .. .. .. .. .. ..",
".. .. .. .. .. .. .. .. .. .. .. .. .. .. .. .. .. .. .. .. .. ..",
"................................................................",
"................................................................",
".. .. .. .. .. .. .. .. .. .. .. .. .. .. .. .. .. .. .. .. .. ..",
".. .. .. .. .. .. .. .. .. .. .. .. .. .. .. .. .. .. .. .. .. ..",
"................................................................",
"................................................................",
".. .. .. .. .. .. .. .. .. .. .. .. .. .. .. .. .. .. .. .. .. ..",
".. .. .. .. .. .. .. .. .. .. .. .. .. .. .. .. .. .. .. .. .. ..",
"................................................................",
"................................................................",
".. .. .. .. .. .. .. .. .. .. .. .. .. .. .. .. .. .. .. .. .. ..",
".. .. .. .. .. .. .. .. .. .. .. .. .. .. .. .. .. .. .. .. .. ..",
"................................................................",
"................................................................",
".. .. .. .. .. .. .. .. .. .. .. .. .. .. .. .. .. .. .. .. .. ..",
".. .. .. .. .. .. .. .. .. .. .. .. .. .. .. .. .. .. .. .. .. ..",
"................................................................",
"................................................................",
".. .. .. .. .. .. .. .. .. .. .. .. .. .. .. .. .. .. .. .. .. ..",
".. .. .. .. .. .. .. .. .. .. .. .. .. .. .. .. .. .. .. .. .. ..",
"................................................................",
"................................................................",
".. .. .. .. .. .. .. .. .. .. .. .. .. .. .. .. .. .. .. .. .. ..",
".. .. .. .. .. .. .. .. .. .. .. .. .. .. .. .. .. .. .. .. .. ..",
"................................................................",
"................................................................",
".. .. .. .. .. .. .. .. .. .. .. .. .. .. .. .. .. .. .. .. .. ..",
".. .. .. .. .. .. .. .. .. .. .. .. .. .. .. .. .. .. .. .. .. ..",
"................................................................",
"................................................................",
".. .. .. .. .. .. .. .. .. .. .. .. .. .. .. .. .. .. .. .. .. ..",
".. .. .. .. .. .. .. .. .. .. .. .. .. .. .. .. .. .. .. .. .. ..",
"................................................................",
"................................................................"
};
