/* XPM */
static char *north_xpm[] = {
"64 64 2 1",
"  c #1a1a8c",
". c #2b2bcc",
"................................................................",
"................................................................",
".. .. .. .. .. .. .. .. .. .. .. .. .. .. .. .. .. .. .. .. .. ..",
".. .. .. .. .. .. .. .. .. .. .. .. .. .. .. .. .. .. .. .. .. ..",
"................................................................",
"................................................................",
".. .. .. .. .. .. .. .. .. .. .. .. .. .. .. .. .. .. .. .. .. ..",
".. .. .. .. .. .. .. .. .. .. .. .. .. .. .. .. .. .. .. .. .. ..",
"................................................................",
"................................................................",
".. .. .. .. .. .. .. .. .. .. .. .. .. .. .. .. .. .. .. .. .. ..",
".. .. .. .. .. .. .. .. .. .. .. .. .. .. .. .. .. .. .. .. .. ..",
"................................................................",
"................................................................",
".. .. .. .. .. .. .. .. .. .. .. .. .. .. .. .. .. .. .. .. .. ..",
".. .. .. .. .. .. .. .. .. .. .. .. .. .. .. .. .. .. .. .. .. ..",
"................................................................",
"................................................................",
".. .. .. .. .. .. .. .. .. .. .. .. .. .. .. .. .. .. .. .. .. ..",
".. .. .. .. .. .. .. .. .. .. .. .. .. .. .. .. .. .. .. .. .. ..",
"................................................................",
"................................................................",
".. .. .. .. .. .. .. .. .. .. .. .. .. .. .. .. .. .. .. .. .. ..",
".. .. .. .. .. .. .. .. .. .. .. .. .. .. .. .. .. .. .. .. .. ..",
"................................................................",
"................................................................",
".. .. .. .. .. .. .. .. .. .. .. .. .. .. .. .. .. .. .. .. .. ..",
".. .. .. .. .. .. .. .. .. .. .. .. .. .. .. .. .. .. .. .. .. ..",
"................................................................",
"................................................................",
".. .. .. .. .. .. .. .. .. .. .. .. .. .. .. .. .. .. .. .. .. ..",
".. .. .. .. .. .. .. .. .. .. .. .. .. .. .. .. .. .. .. .. .. ..",
"................................................................",
"................................................................",
".. .. .. .. .. .. .. .. .. .. .. .. .. .. .. .. .. .. .. .. .. ..",
".. .. .. .. .. .. .. .. .. .. .. .. .. .. .. .. .. .. .. .. .. ..",
"................................................................",
"................................................................",
".. .. .. .. .. .. .. .. .. .. .. .. .. .. .. .. .. .. .. .. .. ..",
".. .. .. .. .. .. .. .. .. .. .. .. .. .. .. .. .. .. .. .. .. ..",
"................................................................",
"................................................................",
".. .. .. .. .. .. .. .. .. .. .. .. .. .. .. .. .. .. .. .. .. ..",
".. .. .. .. .. .. .. .. .. .. .. .. .. .. .. .. .. .. .. .. .. ..",
"................................................................",
"................................................................",
".. .. .. .. .. .. .. .. .. .. .. .. .. .. .. .. .. .. .. .. .. ..",
".. .. .. .. .. .. .. .. .. .. .. .. .. .. .. .. .. .. .. .. .. ..",
"................................................................",
"................................................................",
".. .. .. .. .. .. .. .. .. .. .. .. .. .. .. .. .. .. .. .. .. ..",
".. .. .. .. .. .. .. .. .. .. .. .. .. .. .. .. .. .. .. .. .. ..",
"................................................................",
"................................................................",
".. .. .. .. .. .. .. .. .. .. .. .. .. .. .. .. .. .. .. .. .. ..",
".. .. .. .. .. .. .. .. .. .. .. .. .. .. .. .. .. .. .. .. .. ..",
"................................................................",
"................................................................",
".. .. .. .. .. .. .. .. .. .. .. .. .. .. .. .. .. .. .. .. .. ..",
".. .. .. .. .. .. .. .. .. .. .. .. .. .. .. .. .. .. .. .. .. ..",
"................................................................",
"................................................................",
".. .. .. .. .. .. .. .. .. .. .. .. .. .. .. .. .. .. .. .. .. ..",
".. .. .. .. .. .. .. .. .. .. .. .. .. .. .. .. .. .. .. .. .. ..",
"................................................................",
"................................................................"
};
