/* XPM */
static char *south_xpm[] = {
"64 64 2 1",
"  c #8c1a1a",
". c #cc2b2b",
"................................................................",
"................................................................",
".. .. .. .. .. .. .. .. .. .. .. .. .. .. .. .. .. .. .. .. .. ..",
".. .. .. .. .. .. .. .. .. .. .. .. .. .. .. .. .. .. .. .. .. ..",
"................................................................",
"................................................................",
".. .. .. .. .. .. .. .. .. .. .. .. .. .. .. .. .. .. .. .. .. ..",
".. .. .. .. .. .. .. .. .. .. .. .. .. .. .. .. .. .. .. .. .. ..",
"................................................................",
"................................................................",
".. .. .. .. .. .. .. .. .. .. .. .. .. .. .. .. .. .. .. .. .. ..",
".. .. .. .. .. .. .. .. .. .. .. .. .. .. .. .. .. .. .. .. .. ..",
"................................................................",
"................................................................",
".. .. .. .. .. .. .. .. .. .. .. .. .. .. .. .. .. .. .. .. .. ..",
".. .. .. .. .. .. .. .. .. .. .. .. .. .. .. .. .. .. .. .. .. ..",
"................................................................",
"................................................................",
".. .. .. .. .. .. .. .. .. .. .. .. .. .. .. .. .. .. .. .. .. ..",
".. .. .. .. .. .. .. .. .. .. .. .. .. .. .. .. .. .. .. .. .. ..",
"................................................................",
"................................................................",
".. .. .. .. .. .. .. .. .. .. .. .. .. .. .. .. .. .. .. .. .. ..",
".. .. .. .. .. .. .. .. .. .. .. .. .. .. .. .. .. .. .. .. .. ..",
"................................................................",
"................................................................",
".. .. .. .. .. .. .. .. .. .. .. .. .. .. .. .. .. .. .. .. .. ..",
".. .. .. .. .. .. .. .. .. .. .. .. .. .. .. .. .. .. .. .. .. ..",
"................................................................",
"................................................................",
".. .. .. .. .. .. .. .. .. .. .. .. .. .. .. .. .. .. .. .. .. ..",
".. .. .. .. .. .. .. .. .. .. .. .. .. .. .. .. .. .. .. .. .. ..",
"................................................................",
"................................................................",
".. .. .. .. .. .. .. .. .. .. .. .. .. .. .. .. .. .. .. .. .. ..",
".. .. .. .. .. .. .. .. .. .. .. .. .. .. .. .. .. .. .. .. .. ..",
"................................................................",
"................................................................",
".. .. .. .. .. .. .. .. .. .. .. .. .. .. .. .. .. .. .. .. .. ..",
".. .. .. .. .. .. .. .. .. .. .. .. .. .. .. .. .. .. .. .. .. ..",
"................................................................",
"................................................................",
".. .. .. .. .. .. .. .. .. .. .. .. .. .. .. .. .. .. .. .. .. ..",
".. .. .. .. .. .. .. .. .. .. .. .. .. .. .. .. .. .. .. .. .. ..",
"................................................................",
"................................................................",
".. .. .. .. .. .. .. .. .. .. .. .. .. .. .. .. .. .. .. .. .. ..",
".. .. .. .. .. .. .. .. .. .. .. .. .. .. .. .. .. .. .. .. .. ..",
"................................................................",
"................................................................",
".. .. .. .. .. .. .. .. .. .. .. .. .. .. .. .. .. .. .. .. .. ..",
".. .. .. .. .. .. .. .. .. .. .. .. .. .. .. .. .. .. .. .. .. ..",
"................................................................",
"................................................................",
".. .. .. .. .. .. .. .. .. .. .. .. .. .. .. .. .. .. .. .. .. ..",
".. .. .. .. .. .. .. .. .. .. .. .. .. .. .. .. .. .. .. .. .. ..",
"................................................................",
"................................................................",
".. .. .. .. .. .. .. .. .. .. .. .. .. .. .. .. .. .. .. .. .. ..",
".. .. .. .. .. .. .. .. .. .. .. .. .. .. .. .. .. .. .. .. .. ..",
"................................................................",
"................................................................",
".. .. .. .. .. .. .. .. .. .. .. .. .. .. .. .. .. .. .. .. .. ..",
".. .. .. .. .. .. .. .. .. .. .. .. .. .. .. .. .. .. .. .. .. ..",
"................................................................",
"................................................................"
};
