/* XPM */
static char *west_xpm[] = {
"64 64 2 1",
"  c #8c7a1a",
". c #ccb22b",
"................................................................",
"................................................................",
".. .. .. .. .. .. .. .. .. .. .. .. .. .. .. .. .. .. .. .. .. ..",
".. .. .. .. .. .. .. .. .. .. .. .. .. .. .. .. .. .. .. .. .. ..",
"................................................................",
"................................................................",
".. .. .. .. .. .. .. .. .. .. .. .. .. .. .. .. .. .. .. .. .. ..",
".. .. .. .. .. .. .. .. .. .. .. .. .. .. .. .. .. .. .. .. .. ..",
"................................................................",
"................................................................",
".. .. .. .. .. .. .. .. .. .. .. .. .. .. .. .. .. .. .. .. .. ..",
".. .. .. .. .. .. .. .. .. .. .. .. .. .. .. .. .. .. .. .. .. ..",
"................................................................",
"................................................................",
".. .. .. .. .. .. .. .. .. .. .. .. .. .. .. .. .. .. .. .. .. ..",
".. .. .. .. .. .. .. .. .. .. .. .. .. .. .. .. .. .. .. .. .. ..",
"................................................................",
"................................................................",
".. .. .. .. .. .. .. .. .. .. .. .. .. .. .. .. .. .. .. .. .. ..",
".. .. .. .. .. .. .. .. .. .. .. .. .. .. .. .. .. .. .. .. .. ..",
"................................................................",
"................................................................",
".. .. .. .. .. .. .. .. .. .. .. .. .. .. .. .. .. .. .. .. .. ..",
".. .. .. .. .. .. .. .. .. .. .. .. .. .. .. .. .. .. .. .. .. ..",
"................................................................",
"................................................................",
".. .. .. .. .. .. .. .. .. .. .. .. .. .. .. .. .. .. .. .. .. ..",
".. .. .. .. .. .. .. .. .. .. .. .. .. .. .. .. .. .. .. .. .. ..",
"................................................................",
"................................................................",
".. .. .. .. .. .. .. .. .. .. .. .. .. .. .. .. .. .. .. .. .. ..",
".. .. .. .. .. .. .. .. .. .. .. .. .. .. .. .. .. .. .. .. .. ..",
"................................................................",
"................................................................",
".. .. .. .. .. .. .. .. .. .. .. .. .. .. .. .. .. .. .. .. .. ..",
".. .. .. .. .. .. .. .. .. .. .. .. .. .. .. .. .. .. .. .. .. ..",
"................................................................",
"................................................................",
".. .. .. .. .. .. .. .. .. .. .. .. .. .. .. .. .. .. .. .. .. ..",
".. .. .. .. .. .. .. .. .. .. .. .. .. .. .. .. .. .. .. .. .. ..",
"................................................................",
"................................................................",
".. .. .. .. .. .. .. .. .. .. .. .. .. .. .. .. .. .. .. .. .. ..",
".. .. .. .. .. .. .. .. .. .. .. .. .. .. .. .. .. .. .. .. .. ..",
"................................................................",
"................................................................",
".. .. .. .. .. .. .. .. .. .. .. .. .. .. .. .. .. .. .. .. .. ..",
".. .. .. .. .. .. .. .. .. .. .. .. .. .. .. .. .. .. .. .. .. ..",
"................................................................",
"................................................................",
".. .. .. .. .. .. .. .. .. .. .. .. .. .. .. .. .. .. .. .. .. ..",
".. .. .. .. .. .. .. .. .. .. .. .. .. .. .. .. .. .. .. .. .. ..",
"................................................................",
"................................................................",
".. .. .. .. .. .. .. .. .. .. .. .. .. .. .. .. .. .. .. .. .. ..",
".. .. .. .. .. .. .. .. .. .. .. .. .. .. .. .. .. .. .. .. .. ..",
"................................................................",
"................................................................",
".. .. .. .. .. .. .. .. .. .. .. .. .. .. .. .. .. .. .. .. .. ..",
".. .. .. .. .. .. .. .. .. .. .. .. .. .. .. .. .. .. .. .. .. ..",
"................................................................",
"................................................................",
".. .. .. .. .. .. .. .. .. .. .. .. .. .. .. .. .. .. .. .. .. ..",
".. .. .. .. .. .. .. .. .. .. .. .. .. .. .. .. .. .. .. .. .. ..",
"................................................................",
"................................................................"
};
